X:3
T:Beare Island
R:reel
C:Finbarr Dwyer
Z:Transcribed by Dave Marshall
M:C|
K:Edor
|:EB^GB AGE2|dBcA Beec|d2fd AFDF|GEFD EDB,A,|
B,EEF ~G3A|BAGA Bdef|g2fg egfe|dBAF E4:|
|:Bdef gefd|B2AG FDD2|Bdef gefd|Be^df e3f|
edBc d3c|BcdB AFDF|GB~B2 AFDF|GEED E4:|
